X: 22195
T: La Bocquereuse
R: waltz
M: 3/4
K: Eminor
|E2 EF (3GFE|B4 ef|gf ed ef|B2 A2 B2|
e2 d2 B2|A2 G2 A2|B3 A G2|F4 GF|
E2 EF (3GFE|B4 ef|gf ed ef|B2 A2 B2|
e2 d2 B2|A2 G2 F2|F3 G FE|E5:|
B2 e2 f2|g2 f2 e2|c4 e2|B5|
e2 d2 B2|A2 G2 A2|B3 A G2|F4 GF|
B2 e2 f2|g2 f2 e2|c4 e2|B5|
e2 d2 B2|A2 G2 F2|F3 G FD|E5:|

